packages/core/src/svgs/bcube.svg

<svg width="24" height="24" viewBox="0 0 24 24" fill="none" xmlns="http://www.w3.org/2000/svg">
<g clip-path="url(#clip0_31_6907)">
<path d="M0 0H24V24H0V0Z" fill="url(#paint0_linear_31_6907)"/>
<path d="M5.57141 15.6384L12 19.2812V11.9955L5.57141 8.35693V15.6384Z" fill="#30C7F4"/>
<path d="M18.4286 15.6429L12 19.2857V12.0172L18.4286 8.36572V15.6429Z" fill="#075899"/>
<path d="M12.0086 4.71436L5.5929 8.37864L12.0086 12.0215L18.4286 8.37864L12.0086 4.71436Z" fill="#199BCC"/>
<path d="M8.14282 5.64404H9.42854V9.11547L12 7.6669L15.8571 9.84404V14.194L12 16.3712L8.14282 14.194V5.64404ZM14.5714 10.564L12 9.1069L11.28 9.51404L11.85 9.8269L12.5571 9.7069L13.2728 10.0926C13.2849 10.0842 13.2979 10.077 13.3114 10.0712C13.4057 10.0369 13.5085 10.0712 13.5385 10.1483C13.5685 10.2255 13.5214 10.3198 13.4228 10.354C13.3285 10.3926 13.2257 10.3583 13.1957 10.2812C13.1892 10.264 13.1862 10.2456 13.1869 10.2272C13.1877 10.2088 13.1921 10.1907 13.2 10.174L12.54 9.81833L11.8285 9.93404L11.1728 9.57404L10.4785 9.96833L12.1157 10.8726C12.1267 10.8674 12.1382 10.8631 12.15 10.8598C12.2485 10.834 12.3471 10.8769 12.3685 10.9583C12.39 11.044 12.3257 11.1298 12.2314 11.1512C12.1328 11.1769 12.0343 11.134 12.0128 11.0526C12.0082 11.0345 12.0074 11.0157 12.0103 10.9973C12.0133 10.9789 12.02 10.9612 12.03 10.9455L10.3714 10.0283L9.42854 10.564V11.1426L11.2414 12.184C11.2551 12.1652 11.2732 12.1499 11.2941 12.1394C11.315 12.129 11.338 12.1237 11.3614 12.124C11.4471 12.124 11.5157 12.2098 11.5114 12.3083C11.5114 12.4069 11.4385 12.484 11.3528 12.4798C11.2671 12.4798 11.1985 12.394 11.2028 12.2998C11.2026 12.294 11.2026 12.2883 11.2028 12.2826L9.42854 11.2626V12.034L10.2 12.4798C10.23 12.4369 10.2728 12.4112 10.3285 12.4112C10.4143 12.4112 10.4828 12.4883 10.4828 12.5912C10.4828 12.6898 10.41 12.7712 10.3243 12.7712C10.2385 12.7712 10.17 12.6898 10.17 12.5912V12.5869L9.42854 12.1583V12.874L10.4185 13.414L10.8814 13.114L11.3614 13.3926C11.3914 13.3498 11.4343 13.3283 11.4857 13.3283C11.5714 13.3283 11.6357 13.414 11.6357 13.5126C11.6314 13.6112 11.5585 13.6926 11.4728 13.6883C11.3871 13.6883 11.3228 13.6026 11.3228 13.504V13.4955L10.8814 13.2383L10.4228 13.5383L9.42854 12.9898V13.4698L12 14.9269L12.9985 14.3612V12.544C12.9385 12.544 12.8828 12.5183 12.8571 12.4755C12.8185 12.3983 12.8657 12.2998 12.96 12.2483C13.0585 12.1969 13.17 12.2183 13.2085 12.2912C13.2514 12.3683 13.2043 12.4669 13.1057 12.5183V14.3012L13.8428 13.8812V13.2083L14.2885 12.6598V11.9569C14.22 11.9655 14.1557 11.9398 14.1257 11.884C14.0828 11.8112 14.13 11.7126 14.2243 11.6612C14.3185 11.614 14.43 11.6312 14.4685 11.704C14.5071 11.7726 14.4728 11.8626 14.3957 11.914V12.6983L13.95 13.2469V13.8255L14.5714 13.474V10.5598V10.564ZM12.6128 10.4526C12.6272 10.4233 12.6302 10.3897 12.6214 10.3583C12.6 10.2812 12.5014 10.234 12.4071 10.2598C12.3085 10.2855 12.2443 10.3712 12.2657 10.4526C12.2871 10.5383 12.3857 10.5812 12.4843 10.5555C12.5022 10.5505 12.5195 10.5433 12.5357 10.534L13.6157 11.1212V12.3383C13.5343 12.3898 13.5 12.4798 13.5385 12.5483C13.5814 12.6212 13.6885 12.6426 13.7828 12.5912C13.8771 12.544 13.92 12.4455 13.8814 12.3683C13.8557 12.3169 13.7914 12.2912 13.7228 12.2998V11.0569L12.6128 10.4569V10.4526Z" fill="#191D20"/>
</g>
<defs>
<linearGradient id="paint0_linear_31_6907" x1="4.46571" y1="4.16143" x2="29.2071" y2="32.58" gradientUnits="userSpaceOnUse">
<stop stop-color="#1A1E21"/>
<stop offset="1" stop-color="#06060A"/>
</linearGradient>
<clipPath id="clip0_31_6907">
<rect width="24" height="24" fill="white"/>
</clipPath>
</defs>
</svg>

<svg xmlns="http://www.w3.org/2000/svg" width="24" height="24" fill="none" viewBox="0 0 24 24"><g clip-path="url(#a)"><path fill="url(#b)" d="M0 0h24v24H0z"/><path fill="#30C7F4" d="M5.571 15.638 12 19.281v-7.285l-6.429-3.64z"/><path fill="#075899" d="M18.429 15.643 12 19.286v-7.269l6.429-3.651z"/><path fill="#199BCC" d="M12.009 4.714 5.593 8.38l6.416 3.643 6.42-3.643z"/><path fill="#191D20" d="M8.143 5.644h1.286v3.471L12 7.667l3.857 2.177v4.35L12 16.371l-3.857-2.177zm6.428 4.92L12 9.107l-.72.407.57.313.707-.12.716.386a.2.2 0 0 1 .038-.022c.095-.034.197 0 .228.077.03.078-.018.172-.116.206-.095.039-.197.004-.227-.073a.14.14 0 0 1 .004-.107l-.66-.356-.711.116-.656-.36-.694.394 1.637.905.034-.013c.098-.026.197.017.218.098.022.086-.042.172-.137.193-.098.026-.197-.017-.218-.098a.14.14 0 0 1 .017-.108l-1.659-.917-.942.536v.579l1.812 1.041a.15.15 0 0 1 .12-.06c.086 0 .155.086.15.184 0 .099-.072.176-.158.172-.086 0-.155-.086-.15-.18v-.017l-1.774-1.02v.771l.771.446a.15.15 0 0 1 .129-.069c.085 0 .154.077.154.18 0 .099-.073.18-.159.18-.085 0-.154-.081-.154-.18v-.004l-.741-.429v.716l.99.54.462-.3.48.279a.14.14 0 0 1 .125-.065c.085 0 .15.086.15.185-.005.098-.077.18-.163.175-.086 0-.15-.085-.15-.184v-.008l-.442-.258-.458.3-.994-.548v.48L12 14.927l.999-.566v-1.817c-.06 0-.116-.026-.142-.069-.038-.077.009-.175.103-.227.098-.051.21-.03.248.043.043.077-.004.176-.102.227v1.783l.737-.42v-.673l.446-.548v-.703c-.069.008-.133-.017-.163-.073-.043-.073.004-.171.098-.223.095-.047.206-.03.245.043.038.069.004.159-.073.21v.784l-.446.549v.579l.621-.352V10.56zm-1.958-.111a.13.13 0 0 0 .008-.095c-.021-.077-.12-.124-.214-.098-.098.026-.163.111-.141.193.021.085.12.128.218.103a.2.2 0 0 0 .052-.022l1.08.587v1.217c-.082.052-.116.142-.077.21.042.073.15.095.244.043.094-.047.137-.146.098-.223-.025-.051-.09-.077-.158-.068v-1.243l-1.11-.6z"/></g><defs><linearGradient id="b" x1="4.466" x2="29.207" y1="4.161" y2="32.58" gradientUnits="userSpaceOnUse"><stop stop-color="#1A1E21"/><stop offset="1" stop-color="#06060A"/></linearGradient><clipPath id="a"><path fill="#fff" d="M0 0h24v24H0z"/></clipPath></defs></svg>
